X:498
T:Mr Cosgill's Delight
C:John Young, 1728
S:Colin Hume's website,  colinhume.com  - chords can also be printed below the stave.
Q:1/2=80
M:4/4
L:1/8
K:C
P:A
|: "C"e2 g2 c'2 c2 | "F"f3/g/ "C"e3/f/ "G"d2 "C"c2 | "C"e2 g2 "G"d2 G2 | "Am"c3/ d/ "G"B3/c/ "D7"A2 "G"G2 :|
P:B
|: "G"d2 g3/f/ "Am"e2 a3/g/ | "Dm"f3/e/d3/c/ "G"B3/A/G3/f/ | "C"e3/f/ g3/G/ "Am"A3/B/ c3/g/ | "F"f3/g/ "C"e3/f/ "G"d2 "C"c2 :|

